svg/Pictogram/pictograms-aem-0119-severing_of_fingers_or_hand-impeller_blade.svg

<?xml version="1.0" encoding="ISO-8859-1" standalone="yes"?>
<svg height="305.909" width="305.909">
  <metadata>
    <rdf:RDF xmlns:cc="http://web.resource.org/cc/" xmlns:dc="http://purl.org/dc/elements/1.1/" xmlns:rdf="http://www.w3.org/1999/02/22-rdf-syntax-ns#">
      <cc:Work rdf:about="">
        <dc:title></dc:title>
        <dc:description></dc:description>
        <dc:subject>
          <rdf:Bag>
            <rdf:li></rdf:li>
          </rdf:Bag>
        </dc:subject>
        <dc:publisher>
          <cc:Agent rdf:about="http://www.unece.org/trans/danger/publi/ghs/pictograms.html">
            <dc:title>Source: UNECE GHS of Classification and Labeling of Chemicals, Source: AEM Pictorial Database, Source: AEM Pictorial Database, Source: AEM Pictorial Database, Source: AEM Pictorial Database</dc:title>
          </cc:Agent>
        </dc:publisher>
        <dc:creator>
          <cc:Agent>
            <dc:title></dc:title>
          </cc:Agent>
        </dc:creator>
        <dc:rights>
          <cc:Agent>
            <dc:title></dc:title>
          </cc:Agent>
        </dc:rights>
        <dc:date></dc:date>
        <dc:format>image/svg+xml</dc:format>
        <dc:type rdf:resource="http://purl.org/dc/dcmitype/StillImage"/>
        <cc:license rdf:resource="http://en.wikipedia.org/wiki/Public_domain"/>
        <dc:language>en</dc:language>
      </cc:Work>
    </rdf:RDF>
  </metadata>
  <defs><marker id="ArrowEnd" markerHeight="3" markerUnits="strokeWidth" markerWidth="4" orient="auto" refX="0" refY="5" viewBox="0 0 10 10"><path d="M 0 0 L 10 5 L 0 10 z"/></marker><marker id="ArrowStart" markerHeight="3" markerUnits="strokeWidth" markerWidth="4" orient="auto" refX="10" refY="5" viewBox="0 0 10 10"><path d="M 10 0 L 0 5 L 10 10 z"/></marker> </defs>
  <g id="g2958" transform="matrix(1.3532768,0,0,1.3532781,-53.207834,-52.192858)">
    <path d="M 94.2454 43.5304L 144.936 92.3544L 194.561 107.561C 191.725 117.776 183.261 118.425 176.686 116.636C 176.257 116.518 173.768 115.729 173.768 115.729L 175.308 111.183L 164.058 112.561L 142.538 105.429C 138.725 104.339 137.518 105.854 140.936 107.561C 142.538 108.362 157.827 114.206 157.827 114.206C 157.827 114.206 157.194 117.046 156.542 120.761C 155.901 124.421 155.835 127.893 155.835 127.893L 129.464 117.433C 127.862 116.636 124.929 117.702 127.862 119.3C 130.796 120.901 142.003 127.304 142.003 127.304C 144.14 128.64 145.472 129.972 147.073 133.175C 148.675 136.378 157.21 153.448 157.21 153.448C 152.409 155.319 142.804 155.585 139.604 147.85C 136.401 140.112 137.733 141.979 137.733 141.979L 117.725 129.706C 115.858 128.374 113.987 129.44 115.058 132.374C 116.124 135.308 127.597 179.597 127.597 179.597C 122.526 180.667 112.925 180.667 109.987 169.991C 107.054 159.323 100.382 135.308 100.382 135.308C 99.5813 133.175 98.5149 131.308 96.3821 129.175C 94.2454 127.038 79.8392 113.698 79.8392 113.698C 78.5032 112.362 76.3704 113.433 77.972 115.034C 79.5696 116.636 91.3118 131.042 91.3118 131.042C 97.3665 137.702 94.6829 146.878 90.7766 150.784L 66.7649 124.104C 64.6321 122.237 62.7649 119.569 62.2298 114.233C 61.6946 108.897 59.8274 84.8864 59.8274 84.8864C 59.8274 84.8864 60.6282 82.7534 55.2923 77.1474C 49.9563 71.5464 48.3548 69.9444 48.3548 69.9444L 48.3548 43.5304L 94.2454 43.5304" style="stroke:none; fill-rule:evenodd; fill:#000000"/>
    <path d="M 171.132 126.413C 171.581 123.073 172.675 119.347 172.675 119.347L 189.757 126.507C 187.893 130.772 181.097 138.597 170.425 134.061C 170.425 134.061 170.718 129.472 171.132 126.413" style="stroke:none; fill-rule:evenodd; fill:#000000"/>
    <path d="M 202.671 176.515C 202.296 174.823 201.706 173.214 200.921 171.722C 208.917 165.171 230.225 161.409 250.565 168.55L 247.39 156.651C 226.241 151.366 201.436 157.081 194.233 164.456C 192.808 163.542 191.253 162.819 189.608 162.304C 190.628 152.018 203.038 134.288 222.468 124.948L 211.815 118.784C 193.12 129.999 179.62 151.577 179.741 161.882C 178.05 162.257 176.44 162.847 174.944 163.636C 168.393 155.636 164.64 134.327 171.772 113.987L 160.007 115.393C 154.722 136.546 160.311 163.093 167.682 170.319C 166.768 171.745 166.042 173.3 165.526 174.948C 155.241 173.925 137.515 161.515 128.175 142.085L 122.011 152.745C 133.225 171.433 154.8 184.933 165.104 184.811C 165.479 186.507 166.081 188.112 166.866 189.604C 158.874 196.155 137.558 199.921 117.214 192.78L 120.393 204.675C 141.542 209.964 166.35 204.245 173.55 196.874C 174.975 197.784 176.526 198.511 178.175 199.026C 177.151 209.316 164.741 227.042 145.311 236.378L 155.968 242.542C 174.659 231.328 188.155 209.753 188.042 199.448C 189.733 199.073 191.339 198.472 192.831 197.686C 199.382 205.683 203.143 226.995 196.007 247.339L 207.905 244.163C 213.19 223.015 207.475 198.202 200.097 191.007C 201.011 189.581 201.737 188.026 202.253 186.382C 212.542 187.405 230.268 199.815 239.608 219.242L 245.768 208.585C 234.554 189.893 212.975 176.397 202.671 176.515zM 183.89 185.948C 180.972 185.948 178.608 183.581 178.608 180.667C 178.608 177.745 180.972 175.382 183.89 175.382C 186.808 175.382 189.171 177.745 189.171 180.667C 189.171 183.581 186.808 185.948 183.89 185.948" style="stroke:none; fill-rule:evenodd; fill:#000000"/>
    <path d="M 111.464 195.683C 118.405 229.324 148.194 254.617 183.89 254.617C 224.733 254.617 257.843 221.507 257.843 180.667C 257.843 147.104 235.483 118.761 204.847 109.726L 142.421 45.6944L 159.061 45.7064L 214.823 102.8C 245.768 115.108 267.647 145.331 267.647 180.667C 267.647 226.925 230.155 264.425 183.89 264.425C 144.815 264.425 110.058 237.691 100.8 201.499L 46.5579 145.858L 48.0618 129.44L 111.464 195.686" style="stroke:none; fill-rule:evenodd; fill:#000000"/>
    <path d="M 29.6204 267.288L 2.62042 267.288" style="stroke:#000000; stroke-width:0.5; fill:none"/>
    <path d="M 38.6204 276.288L 38.6204 303.288" style="stroke:#000000; stroke-width:0.5; fill:none"/>
    <path d="M 29.6204 38.6204L 2.62042 38.6204" style="stroke:#000000; stroke-width:0.5; fill:none"/>
    <path d="M 38.6204 29.6204L 38.6204 2.62042" style="stroke:#000000; stroke-width:0.5; fill:none"/>
    <path d="M 276.288 38.6204L 303.288 38.6204" style="stroke:#000000; stroke-width:0.5; fill:none"/>
    <path d="M 267.288 29.6204L 267.288 2.62042" style="stroke:#000000; stroke-width:0.5; fill:none"/>
    <path d="M 276.288 267.288L 303.288 267.288" style="stroke:#000000; stroke-width:0.5; fill:none"/>
    <path d="M 267.288 276.288L 267.288 303.288" style="stroke:#000000; stroke-width:0.5; fill:none"/>
  </g>
</svg>

<svg viewBox="0 0 305.91 305.91"><g transform="matrix(1.35328 0 0 1.35328-53.21-52.19)" fill-rule="evenodd"><path d="m94.25 43.53l50.691 48.824 49.625 15.207c-2.836 10.215-11.3 10.864-17.875 9.07-.429-.118-2.918-.907-2.918-.907l1.54-4.546-11.25 1.378-21.52-7.132c-3.813-1.09-5.02.425-1.602 2.132 1.602.801 16.891 6.645 16.891 6.645 0 0-.633 2.84-1.285 6.555-.641 3.66-.707 7.132-.707 7.132l-26.371-10.46c-1.602-.797-4.535.269-1.602 1.867 2.934 1.601 14.14 8 14.14 8 2.137 1.336 3.469 2.668 5.07 5.871 1.602 3.203 10.137 20.273 10.137 20.273-4.801 1.871-14.406 2.137-17.606-5.598-3.203-7.738-1.871-5.871-1.871-5.871l-20.01-12.273c-1.867-1.332-3.738-.266-2.667 2.668 1.066 2.934 12.539 47.22 12.539 47.22-5.071 1.07-14.672 1.07-17.61-9.606-2.933-10.668-9.605-34.683-9.605-34.683-.801-2.133-1.867-4-4-6.133-2.137-2.137-16.543-15.477-16.543-15.477-1.336-1.336-3.469-.265-1.867 1.336 1.598 1.602 13.34 16.01 13.34 16.01 6.05 6.66 3.371 15.836-.535 19.742l-24.01-26.68c-2.133-1.867-4-4.535-4.535-9.871-.535-5.336-2.402-29.347-2.402-29.347 0 0 .801-2.133-4.535-7.739-5.336-5.601-6.938-7.203-6.938-7.203v-26.414h45.891"/><path d="m171.13 126.41c.449-3.34 1.543-7.07 1.543-7.07l17.08 7.16c-1.864 4.265-8.66 12.09-19.332 7.554 0 0 .293-4.589.707-7.648"/><path d="m202.67 176.51c-.375-1.692-.965-3.301-1.75-4.793 7.996-6.551 29.3-10.313 49.644-3.172l-3.175-11.899c-21.15-5.285-45.954.43-53.16 7.805-1.425-.914-2.98-1.637-4.625-2.152 1.02-10.286 13.43-28.02 32.86-37.36l-10.653-6.164c-18.695 11.215-32.19 32.793-32.07 43.1-1.691.375-3.301.965-4.797 1.754-6.551-8-10.304-29.31-3.172-49.649l-11.765 1.406c-5.285 21.15.304 47.7 7.675 54.926-.914 1.426-1.64 2.981-2.156 4.629-10.285-1.023-28.01-13.433-37.35-32.863l-6.164 10.66c11.214 18.688 32.789 32.19 43.09 32.07.375 1.696.977 3.301 1.762 4.793-7.992 6.551-29.31 10.317-49.652 3.176l3.179 11.895c21.15 5.289 45.957-.43 53.16-7.801 1.425.91 2.976 1.637 4.625 2.152-1.024 10.29-13.434 28.02-32.864 37.35l10.657 6.164c18.691-11.214 32.19-32.789 32.07-43.09 1.691-.375 3.297-.976 4.789-1.762 6.551 7.997 10.312 29.31 3.176 49.653l11.898-3.176c5.285-21.15-.43-45.961-7.808-53.16.914-1.426 1.64-2.981 2.156-4.625 10.289 1.023 28.02 13.433 37.36 32.86l6.16-10.657c-11.214-18.692-32.793-32.19-43.1-32.07m-18.781 9.433c-2.918 0-5.282-2.367-5.282-5.281 0-2.922 2.364-5.285 5.282-5.285 2.918 0 5.281 2.363 5.281 5.285 0 2.914-2.363 5.281-5.281 5.281"/><path d="m111.46 195.68c6.941 33.641 36.73 58.934 72.43 58.934 40.843 0 73.953-33.11 73.953-73.95 0-33.563-22.36-61.906-52.996-70.941l-62.43-64.03 16.64.012 55.762 57.09c30.945 12.308 52.824 42.531 52.824 77.867 0 46.26-37.492 83.76-83.76 83.76-39.07 0-73.832-26.734-83.09-62.926l-54.24-55.641 1.504-16.418 63.4 66.25"/></g></svg>
